TPFinal/static/svgs/solid/draw-polygon.svg

<svg xmlns="http://www.w3.org/2000/svg" viewBox="0 0 448 512"><!--! Font Awesome Free 6.2.1 by @fontawesome - https://fontawesome.com License - https://fontawesome.com/license/free (Icons: CC BY 4.0, Fonts: SIL OFL 1.1, Code: MIT License) Copyright 2022 Fonticons, Inc. --><path d="M96 151.4V360.6c9.7 5.6 17.8 13.7 23.4 23.4H328.6c0-.1 .1-.2 .1-.3l-4.5-7.9-32-56 0 0c-1.4 .1-2.8 .1-4.2 .1c-35.3 0-64-28.7-64-64s28.7-64 64-64c1.4 0 2.8 0 4.2 .1l0 0 32-56 4.5-7.9-.1-.3H119.4c-5.6 9.7-13.7 17.8-23.4 23.4zM384.3 352c35.2 .2 63.7 28.7 63.7 64c0 35.3-28.7 64-64 64c-23.7 0-44.4-12.9-55.4-32H119.4c-11.1 19.1-31.7 32-55.4 32c-35.3 0-64-28.7-64-64c0-23.7 12.9-44.4 32-55.4V151.4C12.9 140.4 0 119.7 0 96C0 60.7 28.7 32 64 32c23.7 0 44.4 12.9 55.4 32H328.6c11.1-19.1 31.7-32 55.4-32c35.3 0 64 28.7 64 64c0 35.3-28.5 63.8-63.7 64l-4.5 7.9-32 56-2.3 4c4.2 8.5 6.5 18 6.5 28.1s-2.3 19.6-6.5 28.1l2.3 4 32 56 4.5 7.9z"/></svg>

<svg xmlns="http://www.w3.org/2000/svg" viewBox="0 0 448 512"><!--! Font Awesome Free 6.1.1 by @fontawesome - https://fontawesome.com License - https://fontawesome.com/license/free (Icons: CC BY 4.0, Fonts: SIL OFL 1.1, Code: MIT License) Copyright 2022 Fonticons, Inc. --><path d="M384.3 352C419.5 352.2 448 380.7 448 416C448 451.3 419.3 480 384 480C360.3 480 339.6 467.1 328.6 448H119.4C108.4 467.1 87.69 480 64 480C28.65 480 0 451.3 0 416C0 392.3 12.87 371.6 32 360.6V151.4C12.87 140.4 0 119.7 0 96C0 60.65 28.65 32 64 32C87.69 32 108.4 44.87 119.4 64H328.6C339.6 44.87 360.3 32 384 32C419.3 32 448 60.65 448 96C448 131.3 419.5 159.8 384.3 159.1L345.5 227.9C349.7 236.4 352 245.9 352 256C352 266.1 349.7 275.6 345.5 284.1L384.3 352zM96 360.6C105.7 366.2 113.8 374.3 119.4 384H328.6C328.6 383.9 328.7 383.8 328.7 383.7L292.2 319.9C290.8 319.1 289.4 320 288 320C252.7 320 224 291.3 224 256C224 220.7 252.7 192 288 192C289.4 192 290.8 192 292.2 192.1L328.7 128.3L328.6 128H119.4C113.8 137.7 105.7 145.8 96 151.4L96 360.6z"/></svg>
